src/static/logos/hoodie.svg

<?xml version="1.0" encoding="UTF-8" standalone="no"?>
<svg width="512px" height="119px" viewBox="0 0 512 119" version="1.1" xmlns="http://www.w3.org/2000/svg" xmlns:xlink="http://www.w3.org/1999/xlink" preserveAspectRatio="xMidYMid">
	<g fill="#E94E1B">
		<path d="M112.65562,19.5695501 L112.65562,98.5127084 C114.327054,100.055571 115.99849,101.34129 117.798496,102.627009 L117.798496,15.4552487 C115.99849,16.7409679 114.198483,18.155259 112.65562,19.5695501 L112.65562,19.5695501 L112.65562,19.5695501 Z"></path>
		<path d="M103.912729,112.784192 L81.4126432,112.784192 C76.6554821,112.784192 72.6697526,108.927034 72.6697526,104.041301 C72.6697526,96.4555577 66.4983006,90.1555336 58.7839854,90.1555336 C51.0696702,90.1555336 44.8982181,96.3269857 44.8982181,104.041301 C44.8982181,108.798462 41.0410606,112.784192 36.1553277,112.784192 L13.9123856,112.784192 C9.1552247,112.784192 5.16949517,108.927034 5.16949517,104.041301 L5.16949517,14.0409575 C5.16949517,9.28379662 9.1552247,5.426639 13.9123856,5.426639 L36.4124715,5.426639 C41.1696325,5.426639 45.155362,9.28379662 45.155362,14.1695295 C45.155362,21.7552728 51.3268141,28.0552968 59.0411292,28.0552968 C66.7554444,28.0552968 72.9268965,21.8838447 72.9268965,14.1695295 C72.9268965,9.41236853 76.7840541,5.426639 81.669787,5.426639 L104.169873,5.426639 C108.541318,5.426639 112.141332,8.7695089 112.784192,13.0123822 C114.198483,11.855235 115.741345,10.8266596 117.284209,9.79808428 C115.227058,4.26949173 110.084181,0.283762243 103.912729,0.283762243 L81.4126432,0.283762243 C73.8269,0.283762243 67.5268759,6.45521436 67.5268759,14.1695295 C67.5268759,18.9266905 63.6697183,22.91242 58.7839854,22.91242 C53.8982525,22.91242 50.0410949,19.0552624 50.0410949,14.1695295 C50.2982387,6.45521436 43.9982147,0.283762243 36.4124715,0.283762243 L13.9123856,0.283762243 C6.32664243,0.283762243 0.0266184091,6.45521436 0.0266184091,14.1695295 L0.0266184091,104.169873 C0.0266184091,111.755616 6.19807052,118.05564 13.9123856,118.05564 L36.4124715,118.05564 C43.9982147,118.05564 50.2982387,111.884188 50.2982387,104.169873 C50.2982387,99.4127115 54.1553964,95.4269823 59.0411292,95.4269823 C63.9268622,95.4269823 67.7840198,99.2841403 67.7840198,104.169873 C67.7840198,111.755616 73.9554719,118.05564 81.669787,118.05564 L104.169873,118.05564 C110.212753,118.05564 115.484202,114.069911 117.284209,108.66989 C115.741345,107.641315 114.198483,106.612739 112.784192,105.455592 C112.01276,109.569894 108.284175,112.784192 103.912729,112.784192 L103.912729,112.784192 L103.912729,112.784192 Z"></path>
		<path d="M148.912901,112.784192 C137.341428,112.784192 126.541387,109.055606 117.669924,102.755581 C115.869917,101.469862 114.198483,100.055571 112.527047,98.6412804 C101.855579,88.8698145 95.1698385,74.7269034 95.1698385,59.1697011 C95.1698385,43.612499 101.98415,29.4695879 112.65562,19.5695501 C114.327054,18.0266871 115.99849,16.7409679 117.798496,15.4552487 C126.541387,9.1552247 137.341428,5.426639 149.041473,5.426639 C165.884394,5.426639 181.055881,13.269526 190.827347,25.4838584 C191.855922,24.0695673 192.884497,22.6552762 194.041645,21.240985 C183.241603,8.38379315 167.041541,0.283762243 149.041473,0.283762243 C137.341428,0.283762243 126.284243,3.75520405 117.155637,9.66951237 C115.612773,10.6980877 114.069911,11.726663 112.65562,12.8838103 C99.0269961,23.6838515 90.2841055,40.3982009 90.2841055,59.0411292 C90.2841055,77.6840575 99.0269961,94.398407 112.65562,105.198448 C114.069911,106.355596 115.612773,107.384171 117.155637,108.412747 C126.412815,114.327054 137.341428,117.798496 149.041473,117.798496 C167.041541,117.798496 183.241603,109.569894 194.041645,96.8412734 C192.884497,95.5555542 191.855922,94.1412632 190.827347,92.5984002 C180.927309,104.941304 165.884394,112.784192 148.912901,112.784192 L148.912901,112.784192 L148.912901,112.784192 Z"></path>
		<path d="M197.12737,25.4838584 C195.970223,26.8981494 194.941647,28.4410126 193.913072,29.8553036 C199.441665,38.2124783 202.655962,48.36966 202.655962,59.0411292 C202.655962,69.7125985 199.441665,79.8697802 193.913072,88.2269549 C194.941647,89.7698179 195.970223,91.184109 197.12737,92.5984002 C203.81311,83.0840781 207.798839,71.5126054 207.798839,58.9125573 C207.798839,46.3125092 203.81311,34.9981804 197.12737,25.4838584 L197.12737,25.4838584 L197.12737,25.4838584 Z"></path>
		<path d="M270.15622,102.755581 C261.41333,109.055606 250.613289,112.784192 238.913244,112.784192 C222.070322,112.784192 206.898836,104.941304 197.12737,92.7269721 C195.970223,91.3126809 194.941647,89.7698179 193.913072,88.3555268 C188.384479,79.9983521 185.170182,69.9697424 185.170182,59.1697011 C185.170182,48.36966 188.384479,38.3410503 193.913072,29.9838756 C194.941647,28.4410126 195.970223,27.0267214 197.12737,25.6124303 C207.027408,13.269526 222.070322,5.426639 239.041816,5.426639 C250.613289,5.426639 261.41333,9.1552247 270.284792,15.4552487 L270.284792,14.1695295 C270.284792,12.6266665 270.670508,11.2123754 271.184796,9.9266562 C261.927617,3.88377598 250.870432,0.41233416 239.041816,0.41233416 C221.041747,0.41233416 204.841685,8.64093698 194.041645,21.3695569 C192.884497,22.6552762 191.855922,24.0695673 190.827347,25.6124303 C184.141607,35.1267523 180.155877,46.698225 180.155877,59.298273 C180.155877,71.8983211 184.141607,83.3412219 190.827347,92.9841159 C191.855922,94.398407 192.884497,95.8126981 194.041645,97.2269892 C204.841685,110.084181 221.041747,118.184212 239.041816,118.184212 C250.870432,118.184212 261.927617,114.71277 271.184796,108.66989 C270.541936,107.384171 270.284792,105.841307 270.284792,104.427017 L270.15622,102.755581 L270.15622,102.755581 Z"></path>
		<path d="M297.799183,59.1697011 C297.799183,40.5267729 289.056292,23.8124234 275.427669,13.0123822 C275.299098,13.398098 275.299098,13.7838137 275.299098,14.1695295 L275.299098,19.5695501 C285.970566,29.341016 292.656306,43.483927 292.656306,59.0411292 C292.656306,74.5983315 285.970566,88.7412425 275.299098,98.5127084 L275.299098,104.041301 C275.299098,104.427017 275.299098,104.812732 275.427669,105.198448 C289.056292,94.398407 297.799183,77.8126294 297.799183,59.1697011 L297.799183,59.1697011 L297.799183,59.1697011 Z"></path>
		<path d="M289.570581,5.426639 C282.370553,5.426639 276.327672,8.7695089 275.427669,13.0123822 C275.299098,13.398098 275.299098,13.7838137 275.299098,14.1695295 L275.299098,19.5695501 L275.299098,98.5127084 L275.299098,104.041301 C275.299098,104.427017 275.299098,104.812732 275.427669,105.198448 C276.327672,109.441322 282.499124,112.784192 289.570581,112.784192 L328.913587,112.784192 C340.48506,112.784192 351.285101,109.055606 360.156564,102.755581 L360.156564,104.041301 C360.156564,105.584164 360.413707,106.998455 361.056567,108.284175 C351.799389,114.327054 340.870776,117.798496 329.042159,117.798496 L289.570581,117.798496 C280.699117,117.798496 273.49909,113.812767 271.056224,108.284175 C270.413364,106.998455 270.15622,105.455592 270.15622,104.041301 L270.15622,102.755581 L270.15622,15.4552487 L270.15622,14.1695295 C270.15622,12.6266665 270.541936,11.2123754 271.056224,9.9266562 C273.49909,4.26949173 280.82769,0.283762243 289.570581,0.283762243 L328.913587,0.283762243 C340.742204,0.283762243 351.670817,3.75520405 360.927995,9.79808428 C360.413707,11.2123754 360.027992,12.6266665 360.027992,14.1695295 L360.027992,15.4552487 C351.413673,9.1552247 340.613632,5.426639 329.042159,5.426639 L289.570581,5.426639 L289.570581,5.426639 Z"></path>
		<path d="M387.799526,59.1697011 C387.799526,40.5267729 379.056636,23.8124234 365.428013,13.0123822 C365.428013,13.398098 365.29944,13.7838137 365.29944,14.1695295 L365.29944,19.5695501 C375.970909,29.341016 382.656649,43.483927 382.656649,59.0411292 C382.656649,74.5983315 375.970909,88.7412425 365.29944,98.5127084 L365.29944,104.041301 C365.29944,104.427017 365.29944,104.812732 365.428013,105.198448 C379.056636,94.5269789 387.799526,77.8126294 387.799526,59.1697011 L387.799526,59.1697011 L387.799526,59.1697011 Z"></path>
		<path d="M416.471064,19.5695501 L416.471064,98.5127084 C418.1425,100.055571 419.813934,101.34129 421.613941,102.627009 L421.613941,15.4552487 C419.813934,16.7409679 418.1425,18.155259 416.471064,19.5695501 L416.471064,19.5695501 L416.471064,19.5695501 Z"></path>
		<path d="M405.028164,112.784192 L376.870913,112.784192 C371.085177,112.784192 366.199444,109.441322 365.428013,105.198448 C365.428013,104.812732 365.29944,104.427017 365.29944,104.041301 L365.29944,98.5127084 L365.29944,19.5695501 L365.29944,14.0409575 C365.29944,13.6552418 365.29944,13.269526 365.428013,12.8838103 C366.199444,8.64093698 370.956605,5.29806709 376.870913,5.29806709 L405.028164,5.29806709 C410.8139,5.29806709 415.699632,8.64093698 416.471064,12.8838103 C417.885355,11.726663 419.299647,10.6980877 420.842509,9.66951237 C418.656787,4.14091981 412.356762,0.155190326 405.028164,0.155190326 L376.870913,0.155190326 C369.542313,0.155190326 363.24229,4.14091981 361.056567,9.66951237 C360.542279,11.0838035 360.156564,12.4980945 360.156564,14.0409575 L360.156564,15.3266768 L360.156564,102.627009 L360.156564,103.912729 C360.156564,105.455592 360.413707,106.869883 361.056567,108.155602 C363.24229,113.684194 369.542313,117.669924 376.870913,117.669924 L405.028164,117.669924 C412.356762,117.669924 418.656787,113.684194 420.842509,108.155602 C419.299647,107.127026 417.885355,106.098452 416.471064,104.941304 C415.57106,109.569894 410.8139,112.784192 405.028164,112.784192 L405.028164,112.784192 L405.028164,112.784192 Z"></path>
		<path d="M511.614285,31.0124509 L511.614285,14.1695295 C511.614285,6.45521436 505.442832,0.283762243 497.857089,0.283762243 L452.856917,0.283762243 C441.0283,0.283762243 430.099687,3.75520405 420.842509,9.79808428 C419.299647,10.8266596 417.885355,11.855235 416.471064,13.0123822 C402.842441,23.8124234 394.099551,40.5267729 394.099551,59.1697011 C394.099551,77.8126294 402.842441,94.5269789 416.471064,105.32702 C417.885355,106.484167 419.299647,107.512743 420.842509,108.541318 C430.099687,114.584198 441.0283,118.05564 452.856917,118.05564 L497.857089,118.05564 C505.442832,118.05564 511.742856,111.884188 511.742856,104.169873 L511.742856,87.1983795 C511.742856,82.5697904 509.428562,78.455489 505.957119,76.0126226 C509.428562,73.5697561 511.742856,69.4554547 511.742856,64.6982937 L511.742856,53.3839648 C511.742856,48.4982319 509.29999,44.6410743 505.828548,42.1982079 C509.29999,39.7553414 511.614285,35.64104 511.614285,31.0124509 L511.614285,31.0124509 L511.614285,31.0124509 Z M506.471408,31.0124509 C506.471408,35.7696119 502.614249,39.7553414 497.728517,39.7553414 L497.728517,44.8982181 C501.842819,44.8982181 506.471408,48.4982319 506.471408,53.6411087 L506.471408,64.9554375 C506.471408,69.8411704 502.614249,73.698328 497.728517,73.698328 L497.728517,78.8412047 C502.485678,78.8412047 506.471408,82.6983623 506.471408,87.5840953 L506.471408,104.427017 C506.471408,109.184177 502.614249,113.169907 497.728517,113.169907 L452.728345,113.169907 C441.156873,113.169907 430.356832,109.441322 421.485369,103.141298 C419.685362,101.855579 418.013927,100.441287 416.342492,99.0269961 C405.671023,89.2555302 398.985283,75.1126191 398.985283,59.5554169 C398.985283,43.9982147 405.671023,29.8553036 416.342492,20.0838377 C418.013927,18.5409747 419.685362,17.2552556 421.485369,15.9695364 C430.356832,9.1552247 441.156873,5.426639 452.856917,5.426639 L497.857089,5.426639 C502.614249,5.426639 506.599979,9.28379662 506.599979,14.1695295 L506.599979,31.0124509 L506.471408,31.0124509 L506.471408,31.0124509 Z"></path>
	</g>
</svg>

<svg width="512" height="119" xmlns="http://www.w3.org/2000/svg" preserveAspectRatio="xMidYMid"><g fill="#E94E1B"><path d="M112.656 19.57v78.943c1.671 1.543 3.342 2.828 5.142 4.114V15.455c-1.8 1.286-3.6 2.7-5.142 4.115z"/><path d="M103.913 112.784h-22.5c-4.758 0-8.743-3.857-8.743-8.743 0-7.585-6.172-13.885-13.886-13.885a13.828 13.828 0 00-13.886 13.885c0 4.757-3.857 8.743-8.743 8.743H13.912c-4.757 0-8.743-3.857-8.743-8.743v-90c0-4.757 3.986-8.614 8.743-8.614h22.5c4.758 0 8.743 3.857 8.743 8.743 0 7.585 6.172 13.885 13.886 13.885A13.828 13.828 0 0072.927 14.17c0-4.758 3.857-8.743 8.743-8.743h22.5c4.371 0 7.971 3.343 8.614 7.585 1.414-1.157 2.957-2.185 4.5-3.214-2.057-5.529-7.2-9.514-13.371-9.514h-22.5c-7.586 0-13.886 6.171-13.886 13.886 0 4.757-3.857 8.742-8.743 8.742s-8.743-3.857-8.743-8.742C50.298 6.455 43.998.284 36.412.284h-22.5C6.327.284.027 6.455.027 14.17v90c0 7.586 6.171 13.886 13.885 13.886h22.5c7.586 0 13.886-6.172 13.886-13.886 0-4.757 3.857-8.743 8.743-8.743s8.743 3.857 8.743 8.743c0 7.586 6.171 13.886 13.886 13.886h22.5c6.043 0 11.314-3.986 13.114-9.386-1.543-1.029-3.086-2.057-4.5-3.214-.771 4.114-4.5 7.328-8.871 7.328z"/><path d="M148.913 112.784c-11.572 0-22.372-3.728-31.243-10.028-1.8-1.286-3.472-2.7-5.143-4.115A53.484 53.484 0 0195.17 59.17c0-15.558 6.814-29.7 17.486-39.6 1.671-1.543 3.342-2.829 5.142-4.115 8.743-6.3 19.543-10.028 31.243-10.028a53.515 53.515 0 0141.786 20.057c1.029-1.414 2.057-2.829 3.215-4.243-10.8-12.857-27-20.957-45-20.957-11.7 0-22.758 3.471-31.886 9.386-1.543 1.028-3.086 2.057-4.5 3.214-13.629 10.8-22.372 27.514-22.372 46.157 0 18.643 8.743 35.357 22.372 46.157 1.414 1.158 2.957 2.186 4.5 3.215 9.257 5.914 20.185 9.385 31.885 9.385 18 0 34.2-8.228 45-20.957-1.157-1.285-2.185-2.7-3.214-4.243-9.9 12.343-24.943 20.186-41.914 20.186z"/><path d="M197.127 25.484c-1.157 1.414-2.185 2.957-3.214 4.371 5.529 8.357 8.743 18.515 8.743 29.186 0 10.672-3.214 20.829-8.743 29.186a54.63 54.63 0 003.214 4.371c6.686-9.514 10.672-21.085 10.672-33.685 0-12.6-3.986-23.915-10.672-33.43z"/><path d="M270.156 102.756c-8.743 6.3-19.543 10.028-31.243 10.028a53.515 53.515 0 01-41.786-20.057c-1.157-1.414-2.185-2.957-3.214-4.371-5.529-8.358-8.743-18.386-8.743-29.186s3.214-20.829 8.743-29.186a54.63 54.63 0 013.214-4.372c9.9-12.342 24.943-20.185 41.915-20.185 11.571 0 22.371 3.728 31.243 10.028V14.17c0-1.543.386-2.958.9-4.243C261.928 3.884 250.87.412 239.042.412c-18 0-34.2 8.229-45 20.958-1.158 1.285-2.186 2.7-3.215 4.242-6.685 9.515-10.671 21.086-10.671 33.686 0 12.6 3.986 24.043 10.671 33.686 1.029 1.414 2.057 2.829 3.215 4.243 10.8 12.857 27 20.957 45 20.957 11.828 0 22.886-3.471 32.143-9.514-.643-1.286-.9-2.829-.9-4.243l-.129-1.671zM297.8 59.17c0-18.643-8.744-35.358-22.372-46.158-.129.386-.129.772-.129 1.158v5.4a53.484 53.484 0 0117.357 39.471c0 15.557-6.685 29.7-17.357 39.472v5.528c0 .386 0 .772.129 1.157 13.628-10.8 22.371-27.385 22.371-46.028z"/><path d="M289.57 5.427c-7.2 0-13.242 3.343-14.142 7.585-.129.386-.129.772-.129 1.158v89.87c0 .386 0 .772.129 1.157.9 4.243 7.071 7.586 14.143 7.586h39.343c11.571 0 22.371-3.728 31.243-10.028v1.285c0 1.543.257 2.957.9 4.243-9.258 6.043-20.186 9.514-32.015 9.514h-39.471c-8.872 0-16.072-3.985-18.515-9.514-.643-1.286-.9-2.828-.9-4.243V14.17c0-1.543.386-2.958.9-4.243C273.5 4.269 280.828.284 289.571.284h39.343c11.828 0 22.757 3.471 32.014 9.514-.514 1.414-.9 2.829-.9 4.372v1.285c-8.614-6.3-19.414-10.028-30.986-10.028h-39.471zM387.8 59.17c0-18.643-8.743-35.358-22.372-46.158 0 .386-.129.772-.129 1.158v5.4a53.484 53.484 0 0117.358 39.471c0 15.557-6.686 29.7-17.358 39.472v5.528c0 .386 0 .772.129 1.157A58.395 58.395 0 00387.8 59.17zm28.671-39.6v78.943c1.671 1.543 3.343 2.828 5.143 4.114V15.455c-1.8 1.286-3.471 2.7-5.143 4.115z"/><path d="M405.028 112.784h-28.157c-5.786 0-10.672-3.343-11.443-7.586 0-.385-.129-.771-.129-1.157v-90c0-.386 0-.771.129-1.157.771-4.243 5.529-7.586 11.443-7.586h28.157c5.786 0 10.672 3.343 11.443 7.586a54.63 54.63 0 014.372-3.214c-2.186-5.53-8.486-9.515-15.815-9.515h-28.157c-7.329 0-13.629 3.986-15.814 9.515-.515 1.414-.9 2.828-.9 4.371v89.872c0 1.543.257 2.957.9 4.243 2.185 5.528 8.485 9.514 15.814 9.514h28.157c7.329 0 13.629-3.986 15.815-9.514a54.63 54.63 0 01-4.372-3.215c-.9 4.629-5.657 7.843-11.443 7.843z"/><path d="M511.614 31.012V14.17c0-7.715-6.171-13.886-13.757-13.886h-45c-11.829 0-22.757 3.471-32.014 9.514a54.63 54.63 0 00-4.372 3.214C402.842 23.812 394.1 40.527 394.1 59.17s8.742 35.357 22.371 46.157a54.63 54.63 0 004.372 3.214c9.257 6.043 20.185 9.515 32.014 9.515h45c7.586 0 13.886-6.172 13.886-13.886V87.198c0-4.628-2.314-8.743-5.786-11.185 3.472-2.443 5.786-6.558 5.786-11.315V53.384c0-4.886-2.443-8.743-5.914-11.186a13.695 13.695 0 005.785-11.186zm-5.143 0c0 4.758-3.857 8.743-8.742 8.743v5.143c4.114 0 8.742 3.6 8.742 8.743v11.314c0 4.886-3.857 8.743-8.742 8.743v5.143c4.757 0 8.742 3.857 8.742 8.743v16.843c0 4.757-3.857 8.743-8.742 8.743h-45c-11.572 0-22.372-3.729-31.244-10.029-1.8-1.285-3.471-2.7-5.143-4.114a53.484 53.484 0 01-17.357-39.472c0-15.557 6.686-29.7 17.357-39.471 1.672-1.543 3.343-2.829 5.143-4.114 8.872-6.815 19.672-10.543 31.372-10.543h45c4.757 0 8.743 3.857 8.743 8.743v16.842h-.129z"/></g></svg>
